Hatter-kde/actions/24/view-close.svg

<svg xmlns="http://www.w3.org/2000/svg" viewBox="0 0 24 24">
  <defs id="defs3051">
    <style type="text/css" id="current-color-scheme">
      .ColorScheme-Text {
        color:#363636;
      }
      .ColorScheme-NegativeText {
        color:#da4453;
      }
      </style>
  </defs>
  <path 
     style="fill:currentColor;fill-opacity:1;stroke:none" 
     d="M 4 4 L 4 20 L 20 20 L 20 4 L 4 4 z M 5 8 L 19 8 L 19 19 L 5 19 L 5 8 z "
     class="ColorScheme-Text"/>
  <path
     style="fill:currentColor;fill-opacity:1;stroke:none" 
     d="M 9.7070312 10 L 9 10.707031 L 11.292969 13 L 9 15.292969 L 9.7070312 16 L 12 13.707031 L 14.292969 16 L 15 15.292969 L 12.707031 13 L 15 10.707031 L 14.292969 10 L 12 12.292969 L 9.7070312 10 z "
     class="ColorScheme-NegativeText"
     />
</svg>

<?xml version="1.0" encoding="UTF-8"?>
<svg viewBox="0 0 24 24" xmlns="http://www.w3.org/2000/svg">
 <defs id="defs3051">
  <style id="current-color-scheme" type="text/css">.ColorScheme-Text {
        color:#363636;
      }
      .ColorScheme-NegativeText {
        color:#da4453;
      }</style>
 </defs>
 <path class="ColorScheme-Text" d="m4 4v16h16v-16h-16zm1 4h14v11h-14v-11z" fill="currentColor"/>
 <path class="ColorScheme-NegativeText" d="m9.707 10-0.70703 0.70703 2.293 2.293-2.293 2.293 0.70703 0.70703 2.293-2.293 2.293 2.293 0.70703-0.70703-2.293-2.293 2.293-2.293-0.70703-0.70703-2.293 2.293-2.293-2.293z" fill="currentColor"/>
</svg>
